X: 27
T:Le Canal En Octobre
M:4/4
L:1/8
C:Frederic Paris
N:Posted to uk.music.folk 24/10/2003
R:Schottische
Z:Steve Mansfield
K:G
DGA | B3c cBAG | B3c cBAG |  EFGB A3G | FGEF D2GA |
B3c cBAG | B3c cBAG | EFGB A3GF |1G4-G DGA :|
[2G4-G GBc |: d3c cBAG | d3c cBAG | EFGB A3G | FGEF D2Bc |
d3c cBAG | d3ccBAG | EFGB A3G |1G4-G GBc :|2 G4-G ||
<end>
<start>
